!!!SOCIAL_FUNCTION:	songs with hunting dance
!!!PDT:	1956
!!!OTL: No_34_Cow_Creek_Hunting_Dance_Song_(a).krn
!!!LANG: Non-Tone
!!!LING_GROUP: Muskogean
!!!REG: Florida
**kern
*staff1
=1-
*clefF4
*k[b-]
*M2/4
4r
8.c\L
16c\Jk
=2!|:
8d\L
8c\J
8.c\L
16c\Jk
=3
4.c\
8A\
=4
4.c\
16A\LL
16A\JJ
=5||
*M7/8
4A\
4F\
4.F\
=6||
*M3/8
4.F\
=7
4G\
16.F\LL
32F\JJk
=8||
*M3/4
4E\
4C/
8.C/L
16C/Jk
=9||
*M3/8
4.C/
=10
4E\
16.C/LL
32C/JJk
=11
8E/L
8C/J
16r
16C/
=12||
*M2/4
4C/
4C/
=13
8F\L
8F\J
8.C/L
16F/Jk
=14
4F\
8.F\L
16F\Jk
=15
8.B-\L
16B-\Jk
4A\
=16||
*M3/8
16F\LL
16A\J
8A\
16.F\L
32F\JJk
=17||
*M2/4
4F\
4F\
=18||
*M3/8
8E/L
8C/
16C/Jk
16r
=19
4G\
16.F\LL
32F\JJk
=20||
*M2/4
8E/L
8C/J
8.C/L
16C/Jk
=21
4C/
8C\L
16.E\L
32E\JJk
=22
8E/L
8C/J
16C/LL
16C/J
8C/J
=23
(4.c\
16G\)
16r
=24||
*M3/4
4c\
4r
8c\L
8c\J
==:|!
*-
